X:1
T:Title
%%score ( 1 2 ) { 3 | 4 }
L:1/8
M:3/4
K:Ab
V:1 treble nm="Grand Piano, Staff 1"
V:2 treble 
V:3 bass nm="Choir Pad, We Praise Thee"
V:4 bass 
V:1
 [CE]2 [Ec]2 [CA]2 | E2 [DF]2 [FA]2 | [DF]2 [CE]2 [EA]2 | [Ec]2 [EB]4 | E2 [Ec]2 [EA]2 | %5
w: By~William~Howard~Doane,~1893 * *|||||
 E2 [DF]2 [FA]2 | [Fd]2 c3 B | [EA][DG] [CA]4 | [EA]2 [EB]2 [EB]2 | cB [EB]2 [EA]2 | %10
w: |||||
 [Ac]2 [Ae]2 [Ac]2 | [EA]2 [EB]4 | E2 [Ec]2 [EA]2 | E2 [DF]2 [FA]2 | [Fd]2 c3 B | [EA][EG] [EA]4- | %16
w: ||||||
 [EA]4 z2 |] %17
w: |
V:2
 x6 | x6 | x6 | x6 | x6 | x6 | z2 E4 | x6 | x6 | G2 z2 z2 | x6 | x6 | x6 | x6 | z2 E4 | x6 | x6 |] %17
V:3
 A,2 A,2 A,2 | A,2 A,2 D2 | A,2 A,2 A,2 | A,2 G,4 | G,2 A,2 C2 | A,2 A,2 D2 | A,2 A,3 D | CB, A,4 | %8
 A,2 G,B,[K:treble] D2 | D2 D2 C2 | E2 C2 E2 | A,2 G,4 | G,2 A,2 C2 | A,2 A,2 D2 | %14
 A,2 A,3[K:treble] D | CB, C4- | C4 z2 |] %17
V:4
 A,,2 A,,2 A,,2 | C,2 D,2 D,2 | D,2 E,2 C,2 | A,,2 E,4 | E,2 A,,2 A,,2 | C,2 D,2 D,2 | D,2 E,4 | %7
 E,E, A,,4 | C,2 E,2 E,2 | E,2 A,2 A,2 | A,2 A,2 A,2 | C,2 E,4 | E,2 A,,2 A,,2 | C,2 D,2 D,2 | %14
 D,2 E,4 | E,E, A,,4- | A,,4 z2 |] %17

